X: 0610
T: I'll Mak' Ye Fain to Follow Me - 8x32J
C: Oswald 1756
B: RSCDS 6-10
R: jig
Z: 2011 John Chambers <jc:trillian.mit.edu>
M: 6/8
L: 1/8
K: C
C |\
"C"E{F}GG c2e | "Dm"dDD "G7"D2C | "C"E{F}GG "Am"cdc | "G7"BAB "C"cGE |\
"Dm"FdF "C"EcE | "Dm"dDD "G7"D2C | "C"E{F}GG "G7"c2G | "C"ECC C2 :|
f |\
"C"ega gec | "Dm"f2e "G7"d2c | "C"ega gec | "C"gea gec |\
"F"fga "E/C"gec | "Dm"f2e "G7"d2c | "C"E{F}GG "G7"c2G | "C"ECC C2 |]
f |\
"C"ega gec | "Dm"f2e "G7"d2c | "C"ega gec | "C"gea gec |\
"F"fga "E/C"gec | "Dm"fef "G7"dgf | "C"ece "G7"fdf | "C"ecc c2 |]
%%center Book06/0610-Ill_Mak_Ye_Fain_to_Follow_Me-JC.abc

%%sep 1 1 500
%%sep 1 1 500

